X: 2
T: The Killavil Fancy
R: reel
M: 4/4
L: 1/8
K: Gmaj
DGBG A2BA|GE~E2 cEGE|DGBG ~A3B|GEFD EGGA|~B3d ~A3F|GE~E2 cEGE|DGBG ~A3B|GEED EGGD||G2Bd efge|dBAB dBAB|G2Bd efge|dBAG EGGD|G2Bd efge|dB~B2 dega|(3bag ag egde|gedB AGED||


Tune 576	Setting 13563

